X: 19
T: Man Of The House, The
Z: Pipolidz
S: https://thesession.org/tunes/222#setting47254
R: reel
M: 4/4
L: 1/8
K: Emin
E2BE GABG|EGBG AFDF|EEBE GABc|dBcA BEED|
E2BE GAAG|EGBG FDAF|E2BE GABc|dBcA BeeB||
efge fgaf|gfed edBd|efge fgaf|gfed BeeB|
efge fgaf|gfed efga|bgaf gfed|edBA GBFB||

